src/icon/animals/panda.svg

<svg enable-background="new 0 0 24 24" viewBox="0 0 24 24" xmlns="http://www.w3.org/2000/svg"><path d="m22 5.5c0-1.9-1.6-3.5-3.5-3.5-1.6 0-3 1.1-3.4 2.6-1-.4-2-.6-3.1-.6s-2.2.2-3.1.6c-.4-1.5-1.8-2.6-3.4-2.6-1.9 0-3.5 1.6-3.5 3.5 0 1.3.7 2.5 1.8 3.1-1.1 1.6-1.8 3.5-1.8 5.5 0 4.9 4.5 7.9 10 7.9s10-3 10-7.9c0-1.9-.7-3.9-1.8-5.5 1.1-.6 1.8-1.8 1.8-3.1zm-17.1 8.8c-1.2-1.1-1-3.3.4-4.9 1.5-1.5 3.7-1.9 4.9-.7 1.2 1.1 1 3.3-.4 4.9-1.5 1.5-3.6 1.8-4.9.7zm11.7 4.5c-1.1.7-2 1.1-2.8 1.1-.4 0-.8-.1-1.1-.3-.2-.1-.4-.3-.6-.5-.2.2-.4.3-.6.5-.3.2-.7.3-1.1.3-.8 0-1.8-.4-2.8-1.1-.5-.3-.6-.9-.2-1.4.3-.5.9-.6 1.4-.2 1 .7 1.7.8 1.9.7.3-.1.5-.7.5-1.1-.6-.3-1-.7-1-1.3 0-.8.9-1.5 2-1.5s2 .7 2 1.5c0 .5-.4 1-1 1.3 0 .4.2 1 .5 1.1s.9 0 1.9-.7c.5-.3 1.1-.2 1.4.2.1.5 0 1.1-.4 1.4zm2.5-4.5c-1.2 1.1-3.4.8-4.8-.8-1.5-1.6-1.6-3.7-.4-4.9 1.2-1.1 3.4-.8 4.8.8s1.6 3.7.4 4.9z"/><circle cx="8" cy="11" r="1"/><circle cx="16" cy="11" r="1"/></svg>

<?xml version="1.0" encoding="utf-8"?>
<!-- Generator: Adobe Illustrator 18.0.0, SVG Export Plug-In . SVG Version: 6.00 Build 0)  -->
<!DOCTYPE svg PUBLIC "-//W3C//DTD SVG 1.1//EN" "http://www.w3.org/Graphics/SVG/1.1/DTD/svg11.dtd">
<svg version="1.1" id="Layer_1" xmlns="http://www.w3.org/2000/svg" xmlns:xlink="http://www.w3.org/1999/xlink" x="0px" y="0px"
	 viewBox="0 0 24 24" enable-background="new 0 0 24 24" xml:space="preserve">
<g>
	<path d="M22,5.5C22,3.6,20.4,2,18.5,2c-1.6,0-3,1.1-3.4,2.6c-1-0.4-2-0.6-3.1-0.6c-1.1,0-2.2,0.2-3.1,0.6C8.5,3.1,7.1,2,5.5,2
		C3.6,2,2,3.6,2,5.5C2,6.8,2.7,8,3.8,8.6C2.7,10.2,2,12.1,2,14.1C2,19,6.5,22,12,22c5.5,0,10-3,10-7.9c0-1.9-0.7-3.9-1.8-5.5
		C21.3,8,22,6.8,22,5.5z M4.9,14.3c-1.2-1.1-1-3.3,0.4-4.9C6.8,7.9,9,7.5,10.2,8.7c1.2,1.1,1,3.3-0.4,4.9
		C8.3,15.1,6.2,15.4,4.9,14.3z M16.6,18.8c-1.1,0.7-2,1.1-2.8,1.1c-0.4,0-0.8-0.1-1.1-0.3c-0.2-0.1-0.4-0.3-0.6-0.5
		c-0.2,0.2-0.4,0.3-0.6,0.5c-0.3,0.2-0.7,0.3-1.1,0.3c-0.8,0-1.8-0.4-2.8-1.1c-0.5-0.3-0.6-0.9-0.2-1.4c0.3-0.5,0.9-0.6,1.4-0.2
		c1,0.7,1.7,0.8,1.9,0.7c0.3-0.1,0.5-0.7,0.5-1.1c-0.6-0.3-1-0.7-1-1.3c0-0.8,0.9-1.5,2-1.5c1.1,0,2,0.7,2,1.5c0,0.5-0.4,1-1,1.3
		c0,0.4,0.2,1,0.5,1.1c0.3,0.1,0.9,0,1.9-0.7c0.5-0.3,1.1-0.2,1.4,0.2C17.1,17.9,17,18.5,16.6,18.8z M19.1,14.3
		c-1.2,1.1-3.4,0.8-4.8-0.8c-1.5-1.6-1.6-3.7-0.4-4.9c1.2-1.1,3.4-0.8,4.8,0.8C20.1,11,20.3,13.1,19.1,14.3z"/>
	<circle cx="8" cy="11" r="1"/>
	<circle cx="16" cy="11" r="1"/>
</g>
</svg>
